src/topics/icons/linux-mint.svg

<svg height="230" preserveAspectRatio="xMidYMid" viewBox="0 0 256 230" width="256" xmlns="http://www.w3.org/2000/svg" xmlns:xlink="http://www.w3.org/1999/xlink"><linearGradient id="a" x1="9.544068%" x2="68.917652%" y1="12.759772%" y2="69.884359%"><stop offset="0" stop-color="#c7f994"/><stop offset="1" stop-color="#87cf3e"/></linearGradient><linearGradient id="b" x1="19.810732%" x2="67.573463%" y1="89.737799%" y2="31.790233%"><stop offset="0" stop-color="#3d3d3d"/><stop offset="1" stop-opacity=".114007"/></linearGradient><path d="m30.2232874 145.851422-.042707-49.1740462v-14.7261849h-30.1805804v-81.9511909l127.272192.599374 39.812712.08563763c47.646857 0 88.915096 36.04541677 88.915096 83.64954387v145.1666115h-136.86155c-47.6041046.000022-88.9151626-36.088347-88.9151626-83.649745z" opacity=".26"/><path d="m237.716949 191.536796v-105.5412582c0-35.2600865-30.921782-63.842745-69.074363-63.842745h-39.59869v-.0851669l-107.0993861-.4679698v38.5085321h16.4404172c11.4757834 0 13.5030976 7.9219322 13.5030976 18.8867995l.085167 68.0787213c0 35.260108 30.9219098 63.842724 69.0319073 63.842724h94.093501c12.062859 0 22.618413-7.639302 22.618413-19.379722z" fill="url(#a)"/><path d="m228.378176 200.453167c-24.062919-16.582363-41.105533-35.630232-55.461233-60.846497-28.298663-52.2761557-21.681854-78.2265184-91.7593165-84.3458353-20.2235049 0-33.6851068-4.4760642-54.9716635-4.4760642v7.4134814c.0000022.0000224 8.4120487 4.2690238 15.8061017 4.2690238 11.026106.0000224 12.9386231 7.6488104 12.9386231 18.1840108l.0699385 65.2498485c-.0000067 33.87839 29.7549904 61.336067 66.3716397 61.336067h90.360546c6.632587 0 12.590542-2.61373 16.645364-6.784035z" fill="url(#b)" opacity=".175141"/><path d="m144.633118 61.7149612c-8.58668 0-16.216208 3.1879649-22.346386 9.3804878-6.127116 6.189233-9.344231 13.9159941-9.344209 22.6359266v44.0772814h19.992245v-44.0772814c0-3.3422323 1.090548-5.9555824 3.476894-8.3661668 2.39418-2.4183056 4.92949-3.5130614 8.221456-3.5130614 3.360965 0 5.858228 1.0892503 8.257645 3.5130614 2.386369 2.4105844 3.476917 5.0239345 3.476917 8.3661668v44.0772814h19.992274v-44.0772814c0-3.3422323 1.090548-5.9555824 3.476917-8.3661668 2.399416-2.4238111 4.89668-3.5130614 8.257689-3.5130614 3.291989 0 5.827231 1.0947558 8.221411 3.5130614 2.386347 2.4105844 3.476917 5.0239345 3.476917 8.3661668l.108769 51.5020874c0 10.986365-10.462487 20.245641-23.903772 20.245641l-64.467744-.25348c-10.372623 0-19.2316959-10.096143-19.2316959-23.070798v-96.985748h-18.9056911v100.716122c0 10.685954 3.9102471 20.056751 11.5172802 27.634325 6.5019152 6.417781 14.321333 10.215386 23.1069858 11.154956v.36236h71.783729c11.030633 0 20.721581-4.101529 28.539654-12.060844h.036256c6.649238-6.831481 10.536364-15.017151 11.481037-24.229473l-.072512-55.0151484c0-8.7199325-3.217037-16.4466936-9.344254-22.6359266-6.130104-6.1925229-13.75969-9.3804878-22.346347-9.3804878-8.428519 0-15.803484 3.134185-21.766944 8.8733273-5.946026-5.7296755-13.269471-8.8733273-21.694498-8.8733273z" fill-opacity=".080402"/><path d="m143.036565 62.2397518c-8.586683 0-16.216209 3.1879536-22.346391 9.3804851-6.12713 6.1892231-9.344241 13.9159972-9.34422 22.6359157v44.0772964h19.992262v-44.0772964c0-3.3422146 1.090542-5.9555796 3.476881-8.3661663 2.394193-2.4182923 4.929499-3.5130607 8.221468-3.5130607 3.360955 0 5.858224 1.0892614 8.257648 3.5130607 2.38636 2.4105867 3.476923 5.0239517 3.476923 8.3661663v44.0772964h19.992241v-44.0772964c0-3.3422146 1.090563-5.9555796 3.476944-8.3661663 2.399402-2.4237993 4.896671-3.5130607 8.257691-3.5130607 3.29199 0 5.827232 1.0947684 8.221383 3.5130607 2.38636 2.4105867 3.476923 5.0239517 3.476923 8.3661663l.108647 51.5021014c0 10.986361-10.46249 20.245628-23.903772 20.245628l-64.467729-.253473c-10.3726265 0-19.2316937-10.096144-19.2316937-23.070801v-96.9857395h-18.90569v100.7161145c0 10.685951 3.9102502 20.056746 11.5172783 27.634339 6.5019073 6.417765 14.3213404 10.577902 23.1069594 11.51747l71.783759-.00017c11.030632 0 20.72156-4.101524 28.539649-12.060831h.036286c6.64921-6.831497 10.536365-15.017148 11.481035-24.229477l-.07236-55.0151614c0-8.7199185-3.217005-16.4466926-9.34422-22.6359157-6.130119-6.1925315-13.759708-9.3804851-22.346348-9.3804851-8.428516 0-15.80348 3.1341853-21.766957 8.8733257-5.946039-5.7296845-13.269454-8.8733257-21.694491-8.8733257z" fill="#fff"/><path d="m131.279773 165.817411v19.744211h46.959204c11.030589 0 20.664269-4.114011 28.482336-12.073318h.06681c6.649232-6.831518 10.528318-15.001011 11.472988-24.21334v-11.206173h-19.944321v7.670892c0 10.986426-10.438562 20.211135-23.879844 20.211135l-43.157088-.133407z" fill="#52a800" opacity=".3"/><path d="m120.379411 225.53178c-45.4439585 0-84.8804472-34.450808-84.8804472-79.85404l-.0407691-55.1293153v-14.057942h-28.8110723v-70.04594905l121.4970136.57217655 38.006176.08175171c45.484791 0 84.880425 34.40980469 84.880425 79.85380559v138.5794915h-130.651262zm112.138493-37.173908v-101.4055832c0-33.8783972-29.710085-61.341036-66.367656-61.341036h-38.047009v-.0817517l-102.9026206-.4496344v32.8978464h11.5271397c7.8259648 0 17.2429927 7.3543876 17.2429927 18.1467012l.0817517 69.5127697c0 33.878419 29.7102343 61.341015 66.3268865 61.341015h90.406393c11.59015 0 21.7321-7.339958 21.7321-18.620327z" fill="#fff"/></svg>

<?xml version="1.0" encoding="UTF-8" standalone="no"?>
<svg width="256px" height="230px" viewBox="0 0 256 230" version="1.1" xmlns="http://www.w3.org/2000/svg" xmlns:xlink="http://www.w3.org/1999/xlink" preserveAspectRatio="xMidYMid">
    <defs>
        <linearGradient x1="9.54406763%" y1="12.7597724%" x2="68.9176518%" y2="69.8843591%" id="linearGradient-1">
            <stop stop-color="#C7F994" offset="0%"></stop>
            <stop stop-color="#87CF3E" offset="100%"></stop>
        </linearGradient>
        <linearGradient x1="19.8107318%" y1="89.7377988%" x2="67.5734625%" y2="31.7902333%" id="linearGradient-2">
            <stop stop-color="#3D3D3D" offset="0%"></stop>
            <stop stop-color="#000000" stop-opacity="0.11400651" offset="100%"></stop>
        </linearGradient>
    </defs>
	<g>
		<path d="M30.2232874,145.851422 L30.1805804,96.6773758 L30.1805804,81.9511909 L0,81.9511909 L0,0 L127.272192,0.599373998 L167.084904,0.685011632 C214.731761,0.685011632 256,36.7304284 256,84.3345555 L256,229.501167 L119.13845,229.501167 C71.5343454,229.501189 30.2232874,193.41282 30.2232874,145.851422 Z" opacity="0.26000001" fill="#000000"></path>
		<path d="M237.716949,191.536796 L237.716949,85.9955378 C237.716949,50.7354513 206.795167,22.1527928 168.642586,22.1527928 L129.043896,22.1527928 L129.043896,22.0676259 L21.9445099,21.5996561 L21.9445099,60.1081882 L38.3849271,60.1081882 C49.8607105,60.1081882 51.8880247,68.0301204 51.8880247,78.9949877 L51.9731917,147.073709 C51.9731917,182.333817 82.8951015,210.916433 121.005099,210.916433 L215.0986,210.916433 C227.161459,210.916433 237.717013,203.277131 237.717013,191.536711 L237.716949,191.536796 Z" fill="url(#linearGradient-1)"></path>
		<path d="M228.378176,200.453167 C204.315257,183.870804 187.272643,164.822935 172.916943,139.60667 C144.61828,87.3305143 151.235089,61.3801516 81.1576265,55.2608347 C60.9341216,55.2608347 47.4725197,50.7847705 26.185963,50.7847705 L26.185963,58.1982519 C26.1859652,58.1982743 34.5980117,62.4672757 41.9920647,62.4672757 C53.0181707,62.4672981 54.9306878,70.1160861 54.9306878,80.6512865 L55.0006263,145.901135 C55.0006196,179.779525 84.7556167,207.237202 121.372266,207.237202 L211.732812,207.237202 C218.365399,207.237202 224.323354,204.623472 228.378176,200.453167 L228.378176,200.453167 Z" opacity="0.17514122" fill="url(#linearGradient-2)"></path>
		<path d="M144.633118,61.7149612 C136.046438,61.7149612 128.41691,64.9029261 122.286732,71.095449 C116.159616,77.284682 112.942501,85.0114431 112.942523,93.7313756 L112.942523,137.808657 L132.934768,137.808657 L132.934768,93.7313756 C132.934768,90.3891433 134.025316,87.7757932 136.411662,85.3652088 C138.805842,82.9469032 141.341152,81.8521474 144.633118,81.8521474 C147.994083,81.8521474 150.491346,82.9413977 152.890763,85.3652088 C155.277132,87.7757932 156.36768,90.3891433 156.36768,93.7313756 L156.36768,137.808657 L176.359954,137.808657 L176.359954,93.7313756 C176.359954,90.3891433 177.450502,87.7757932 179.836871,85.3652088 C182.236287,82.9413977 184.733551,81.8521474 188.09456,81.8521474 C191.386549,81.8521474 193.921791,82.9469032 196.315971,85.3652088 C198.702318,87.7757932 199.792888,90.3891433 199.792888,93.7313756 L199.901657,145.233463 C199.901657,156.219828 189.43917,165.479104 175.997885,165.479104 L111.530141,165.225624 C101.157518,165.225624 92.2984451,155.129481 92.2984451,142.154826 L92.2984451,45.169078 L73.392754,45.169078 L73.392754,145.8852 C73.392754,156.571154 77.3030011,165.941951 84.9100342,173.519525 C91.4119494,179.937306 99.2313672,183.734911 108.01702,184.674481 L108.01702,185.036841 L179.800749,185.036841 C190.831382,185.036841 200.52233,180.935312 208.340403,172.975997 L208.376659,172.975997 C215.025897,166.144516 218.913023,157.958846 219.857696,148.746524 L219.785184,93.7313756 C219.785184,85.0114431 216.568147,77.284682 210.44093,71.095449 C204.310826,64.9029261 196.68124,61.7149612 188.094583,61.7149612 C179.666064,61.7149612 172.291099,64.8491462 166.327639,70.5882885 C160.381613,64.858613 153.058168,61.7149612 144.633141,61.7149612 L144.633118,61.7149612 Z" fill-opacity="0.08040203" fill="#000000"></path>
		<path d="M143.036565,62.2397518 C134.449882,62.2397518 126.820356,65.4277054 120.690174,71.6202369 C114.563044,77.80946 111.345933,85.5362341 111.345954,94.2561526 L111.345954,138.333449 L131.338216,138.333449 L131.338216,94.2561526 C131.338216,90.913938 132.428758,88.300573 134.815097,85.8899863 C137.20929,83.471694 139.744596,82.3769256 143.036565,82.3769256 C146.39752,82.3769256 148.894789,83.466187 151.294213,85.8899863 C153.680573,88.300573 154.771136,90.913938 154.771136,94.2561526 L154.771136,138.333449 L174.763377,138.333449 L174.763377,94.2561526 C174.763377,90.913938 175.85394,88.300573 178.240321,85.8899863 C180.639723,83.466187 183.136992,82.3769256 186.498012,82.3769256 C189.790002,82.3769256 192.325244,83.471694 194.719395,85.8899863 C197.105755,88.300573 198.196318,90.913938 198.196318,94.2561526 L198.304965,145.758254 C198.304965,156.744615 187.842475,166.003882 174.401193,166.003882 L109.933464,165.750409 C99.5608375,165.750409 90.7017703,155.654265 90.7017703,142.679608 L90.7017703,45.6938685 L71.7960803,45.6938685 L71.7960803,146.409983 C71.7960803,157.095934 75.7063305,166.466729 83.3133586,174.044322 C89.8152659,180.462087 97.634699,184.622224 106.420318,185.561792 L178.204077,185.561622 C189.234709,185.561622 198.925637,181.460098 206.743726,173.500791 L206.780012,173.500791 C213.429222,166.669294 217.316377,158.483643 218.261047,149.271314 L218.188687,94.2561526 C218.188687,85.5362341 214.971682,77.80946 208.844467,71.6202369 C202.714348,65.4277054 195.084759,62.2397518 186.498119,62.2397518 C178.069603,62.2397518 170.694639,65.3739371 164.731162,71.1130775 C158.785123,65.383393 151.461708,62.2397518 143.036671,62.2397518 L143.036565,62.2397518 Z" fill="#FFFFFF"></path>
		<path d="M131.279773,165.817411 L131.279773,185.561622 L178.238977,185.561622 C189.269566,185.561622 198.903246,181.447611 206.721313,173.488304 L206.788123,173.488304 C213.437355,166.656786 217.316441,158.487293 218.261111,149.274964 L218.261111,138.068791 L198.31679,138.068791 L198.31679,145.739683 C198.31679,156.726109 187.878228,165.950818 174.436946,165.950818 L131.279858,165.817411 L131.279773,165.817411 Z" opacity="0.3" fill="#52A800"></path>
		<path d="M120.379411,225.53178 C74.9354525,225.53178 35.4989638,191.080972 35.4989638,145.67774 L35.4581947,90.5484247 L35.4581947,76.4904827 L6.6471224,76.4904827 L6.6471224,6.44453365 L128.144136,7.0167102 L166.150312,7.09846191 C211.635103,7.09846191 251.030737,41.5082666 251.030737,86.9522675 L251.030737,225.531759 L120.379475,225.531759 L120.379411,225.53178 Z M232.517904,188.357872 L232.517904,86.9522888 C232.517904,53.0738916 202.807819,25.6112528 166.150248,25.6112528 L128.103239,25.6112528 L128.103239,25.5295011 L25.2006184,25.0798667 L25.2006184,57.9777131 L36.7277581,57.9777131 C44.5537229,57.9777131 53.9707508,65.3321007 53.9707508,76.1244143 L54.0525025,145.637184 C54.0525025,179.515603 83.7627368,206.978199 120.379389,206.978199 L210.785782,206.978199 C222.375932,206.978199 232.517882,199.638241 232.517882,188.357872 L232.517904,188.357872 Z" fill="#FFFFFF"></path>
	</g>
</svg>
